X: 1
T: Schottische du Gers
T: La Schottische
C: Trad
R: Schottische
L: 1/8
M: 4/4
K: D
Z: ABC transcription by Verge Roller
r: 32
|: "D" F2 G2 "A" A2 Bc | "D" d2 F2 A4 | "G" BAGF "A" E2 EF | "Em" GABc "A" B2 A2 |
"D" F2 G2 "A" A2 Bc | "D" d2 F2 A4 | "G" BAGF "A" EGFE | "D" D2 F2 D4 :|
|: "D" d2 d2 "A" c3 G | "G" B2 B2 "D" A4 | "G" BAGF "A" E2 EF | "Em" GABc "A" B2 A2 |
"D" d2 d2 "A" c3 G | "G" B2 B2 "D" A4 | "G" BAGF "A" EGFE | "D" D2 F2 D4 :|
